images/svg/instagram.svg

<svg width="18" height="19" viewBox="0 0 18 19" fill="none" xmlns="http://www.w3.org/2000/svg">
<path d="M17.9543 5.29308C17.9121 4.33648 17.7574 3.67883 17.5358 3.10897C17.3072 2.50407 16.9555 1.96251 16.4947 1.51231C16.0445 1.0551 15.4994 0.699827 14.9015 0.474795C14.3283 0.253196 13.6741 0.0985034 12.7175 0.0563269C11.7538 0.0105785 11.4478 0 9.0035 0C6.55919 0 6.25324 0.0105785 5.29308 0.0527549C4.33648 0.0949314 3.67883 0.249762 3.1091 0.471223C2.50407 0.699827 1.96251 1.05153 1.51231 1.51231C1.0551 1.96251 0.699964 2.50765 0.474794 3.10554C0.253196 3.67883 0.0985033 4.33291 0.0563268 5.28951C0.0105784 6.25325 0 6.5592 0 9.00351C0 11.4478 0.0105784 11.7538 0.0527549 12.7139C0.0949313 13.6705 0.249761 14.3282 0.471359 14.8981C0.699964 15.5029 1.0551 16.0445 1.51231 16.4947C1.96251 16.9519 2.50764 17.3072 3.10553 17.5322C3.67883 17.7538 4.33291 17.9085 5.28964 17.9507C6.24967 17.993 6.55576 18.0034 9.00007 18.0034C11.4444 18.0034 11.7503 17.993 12.7105 17.9507C13.6671 17.9085 14.3247 17.7538 14.8945 17.5322C16.1044 17.0644 17.061 16.1078 17.5288 14.8981C17.7502 14.3248 17.9051 13.6705 17.9472 12.7139C17.9894 11.7538 18 11.4478 18 9.00351C18 6.5592 17.9964 6.25325 17.9543 5.29308ZM16.333 12.6436C16.2943 13.5229 16.1466 13.9976 16.0235 14.3142C15.721 15.0985 15.0985 15.721 14.3142 16.0235C13.9976 16.1466 13.5194 16.2943 12.6436 16.3329C11.694 16.3752 11.4092 16.3856 9.00707 16.3856C6.60494 16.3856 6.31658 16.3752 5.37042 16.3329C4.49117 16.2943 4.01638 16.1466 3.69985 16.0235C3.30955 15.8792 2.95427 15.6506 2.66591 15.3517C2.36696 15.0598 2.13836 14.7081 1.99411 14.3177C1.87101 14.0012 1.72333 13.5229 1.68472 12.6472C1.64241 11.6976 1.63197 11.4127 1.63197 9.01052C1.63197 6.60838 1.64241 6.32001 1.68472 5.374C1.72333 4.49475 1.87101 4.01995 1.99411 3.70342C2.13836 3.31298 2.36696 2.95785 2.66948 2.66935C2.96128 2.3704 3.31298 2.1418 3.70342 1.99768C4.01995 1.87459 4.49832 1.7269 5.37399 1.68816C6.32358 1.64598 6.60851 1.6354 9.01051 1.6354C11.4162 1.6354 11.701 1.64598 12.6472 1.68816C13.5264 1.7269 14.0012 1.87459 14.3177 1.99768C14.708 2.1418 15.0633 2.3704 15.3517 2.66935C15.6506 2.96128 15.8792 3.31298 16.0235 3.70342C16.1466 4.01995 16.2943 4.49818 16.333 5.374C16.3752 6.32359 16.3858 6.60838 16.3858 9.01052C16.3858 11.4127 16.3752 11.694 16.333 12.6436Z" fill="white"/>
<path d="M9.00357 4.37866C6.45032 4.37866 4.37872 6.45012 4.37872 9.00351C4.37872 11.5569 6.45032 13.6284 9.00357 13.6284C11.557 13.6284 13.6284 11.5569 13.6284 9.00351C13.6284 6.45012 11.557 4.37866 9.00357 4.37866ZM9.00357 12.0035C7.34715 12.0035 6.00355 10.6601 6.00355 9.00351C6.00355 7.34695 7.34715 6.00349 9.00357 6.00349C10.6601 6.00349 12.0036 7.34695 12.0036 9.00351C12.0036 10.6601 10.6601 12.0035 9.00357 12.0035Z" fill="white"/>
<path d="M14.8913 4.1959C14.8913 4.79215 14.4079 5.2756 13.8115 5.2756C13.2153 5.2756 12.7318 4.79215 12.7318 4.1959C12.7318 3.59952 13.2153 3.11621 13.8115 3.11621C14.4079 3.11621 14.8913 3.59952 14.8913 4.1959Z" fill="white"/>
</svg>

<svg width="18" height="19" fill="none" xmlns="http://www.w3.org/2000/svg"><path d="M17.954 5.293c-.042-.957-.197-1.614-.418-2.184a4.393 4.393 0 00-1.041-1.597A4.43 4.43 0 0014.9.475c-.573-.222-1.227-.376-2.184-.419C11.755.011 11.447 0 9.005 0c-2.445 0-2.75.01-3.71.053-.96.042-1.617.197-2.187.417a4.393 4.393 0 00-1.597 1.041c-.457.45-.812.996-1.037 1.594C.253 3.679.099 4.333.056 5.29.011 6.253 0 6.56 0 9.004s.01 2.75.053 3.71c.042.957.197 1.614.418 2.184a4.44 4.44 0 001.041 1.597c.45.457.996.812 1.594 1.037.573.222 1.227.377 2.184.419.96.042 1.266.052 3.71.052s2.75-.01 3.71-.052c.957-.043 1.615-.197 2.184-.419a4.605 4.605 0 002.635-2.634c.221-.573.376-1.227.418-2.184.042-.96.053-1.266.053-3.71 0-2.445-.004-2.75-.046-3.71zm-1.621 7.35c-.039.88-.186 1.355-.31 1.671a2.986 2.986 0 01-1.709 1.71c-.316.123-.795.27-1.67.309-.95.042-1.235.053-3.637.053s-2.69-.01-3.637-.053c-.879-.039-1.354-.186-1.67-.31a2.771 2.771 0 01-1.034-.671 2.798 2.798 0 01-.672-1.034c-.123-.317-.27-.795-.31-1.67-.042-.95-.052-1.235-.052-3.637 0-2.403.01-2.691.053-3.637.038-.88.186-1.354.31-1.67.143-.391.372-.746.674-1.035a2.795 2.795 0 011.034-.671c.317-.123.795-.271 1.671-.31.95-.042 1.235-.053 3.637-.053 2.405 0 2.69.011 3.636.053.88.039 1.354.187 1.67.31.391.144.746.372 1.035.671a2.8 2.8 0 01.671 1.034c.124.317.271.795.31 1.671.042.95.053 1.234.053 3.637 0 2.402-.01 2.683-.053 3.633z" fill="#fff"/><path d="M9.004 4.379a4.626 4.626 0 000 9.25 4.626 4.626 0 000-9.25zm0 7.625a3 3 0 110-6.001 3 3 0 010 6zm5.887-7.808a1.08 1.08 0 11-2.16 0 1.08 1.08 0 012.16 0z" fill="#fff"/></svg>
